X:125
T:Donegal Reel, The
R:reel
Z:id:hn-reel-125
M:C|
K:D
D2DE FDFA|dF~F2 BFAF|E2EF GFGA|(3Bcd AF EGFE|
D2DE FDFA|dF~F2 ABde|(3fgf ec dBAG|1 FGEF D2FE:|2 FGEF D3A||
|:defg afdf|afdf a2gf|edef gfed|cdef g2fe|
defg afdf|afdf abag|(3fgf ec dBAG|1 FGEF D3A:|2 FGEF D2FE||

